resources/svg/anticlockwise-2-fill.svg

<svg fill="currentColor" viewBox="0 0 24 24" xmlns="http://www.w3.org/2000/svg"><path d="M14 4H16C18.7614 4 21 6.23858 21 9V13H19V9C19 7.34315 17.6569 6 16 6H14V9L9 5L14 1V4ZM15 11V21C15 21.5523 14.5523 22 14 22H4C3.44772 22 3 21.5523 3 21V11C3 10.4477 3.44772 10 4 10H14C14.5523 10 15 10.4477 15 11Z"/></svg>

<svg xmlns="http://www.w3.org/2000/svg" viewBox="0 0 24 24" fill="currentColor">
    <g>
        <path fill="none" d="M0 0h24v24H0z"/>
        <path d="M14 4h2a5 5 0 0 1 5 5v4h-2V9a3 3 0 0 0-3-3h-2v3L9 5l5-4v3zm1 7v10a1 1 0 0 1-1 1H4a1 1 0 0 1-1-1V11a1 1 0 0 1 1-1h10a1 1 0 0 1 1 1z"/>
    </g>
</svg>
